X:1
T:梁祝
M:4/4
L:1/8
V:1
Q:1/4=80
K:C
|"C"E4G3A|"F"c3dAcG2|"C"g3c'ageg|"G"d8|
|"F"d3eB2A2|"Dm"G3Ac2d2|"G"E2c2AGAc|"C"G8|
|"C"e3gB2d2|"Dm"AcG6|"Em"E3/2G/2E2G3/2A/2Bd|"Am"A6GA|
|"C"c3dg2e2|"Dm"d2edc2AG|"Em"E4c4|"Am"A3/2c/2AGEGAc|
|"G"G6eg|"Dm"dedcB2A2|"C"G6z2|